X:13661
T:Provincial Park Reel
R:Reel
C:Bruce Osborne  --  July 3 1991
M:2/4
L:1/16
K:Bb
BA|B3F FGFE|D2B,2 B,2A,B,|C=B,CD EGFE|DB,DF BcBA|!
B3F FGFE|D2B,2 B,2A,B,|C=B,CD EGFE|D2B,2 B,2:|!
|:DF|BABc B2de|fgfd B2AB|cFdF eFdF|cFdF c2DE|!
BABc B2de|fgfd B2AB|cFdF ecAc|BABc B2:|!
